X:0237
T:Andrew and his Cutty Gun.
M:2/4
L:1/16
Q:1/4=116
I: :: ::
Z:Jack Campin * www.campin.me.uk * 2009
K:E Minor
B4   E2FG|AGFE F2D2|B3A  F3d | AF3     E4:|
D2d2 d2e2|d2B2 d2A2|B2e2 e2f2|(gf)(ed) B4 | 
A2B2 d2e2|d2B2 A2d2|B2A2 F2d2| AF3     E4:|

